!!!OTL: HAB ICH MEIN TAG KEIN GUT GETHAN
!!!ARE: Europa, Mitteleuropa, Deutschland
!!!SCT: E0532
!!!YEM: Copyright 1995, estate of Helmut Schaffrath.
**kern
*ICvox
*Ivox
*M4/4
*k[b-e-]
*g:
{4fn
=1
4b-
4dd
4cc
4a
=2
4b-
4g
4fn}
{4fn
=3
4b-
4dd
4cc
4a
=4
2b-
4r}
{4fn
=5
4b-
4dd
4cc
4a
=6
4b-
8a
8g
4fn}
{4g
=7
4a
4d
4e
4f#
=8
2g
4r}
==
!!!AGN: Liebes - Lied
!!!ONB: ESAC (Essen Associative Code) Database: ERK1
!!!AMT: simple quadruple
!!!AIN: vox
!!!EED: Helmut Schaffrath
!!!EEV: 1.0
*-
